assets/img/icons/ui/down-arrow-circled.svg

<?xml version="1.0" encoding="utf-8"?>
<!-- Generated by IcoMoon.io -->
<!DOCTYPE svg PUBLIC "-//W3C//DTD SVG 1.1//EN" "http://www.w3.org/Graphics/SVG/1.1/DTD/svg11.dtd">
<svg version="1.1" xmlns="http://www.w3.org/2000/svg" xmlns:xlink="http://www.w3.org/1999/xlink" width="32" height="32" viewBox="0 0 32 32">
<path fill="rgb(0, 0, 0)" d="M16 0.4c-8.615 0-15.6 6.982-15.6 15.6 0 8.615 6.984 15.6 15.6 15.6 8.617 0 15.6-6.984 15.6-15.6 0-8.617-6.982-15.6-15.6-15.6zM16 29.199c-7.279 0-13.199-5.92-13.199-13.199s5.92-13.2 13.199-13.2c7.279 0 13.199 5.921 13.199 13.2s-5.92 13.199-13.199 13.199zM18 19.162l6-6.238v5.055c-2.895 2.912-8 8.021-8 8.021s-5-5.063-8-7.982v-5.105l6 6.25v-13.162h4v13.162z"></path>
</svg>

<svg xmlns="http://www.w3.org/2000/svg" width="32" height="32" viewBox="0 0 32 32"><path d="M16 .4C7.385.4.4 7.382.4 16c0 8.615 6.984 15.6 15.6 15.6 8.617 0 15.6-6.984 15.6-15.6C31.6 7.383 24.618.4 16 .4zm0 28.799c-7.279 0-13.199-5.92-13.199-13.199S8.721 2.8 16 2.8 29.199 8.721 29.199 16 23.279 29.199 16 29.199zm2-10.037l6-6.238v5.055C21.105 20.891 16 26 16 26s-5-5.063-8-7.982v-5.105l6 6.25V6.001h4v13.162z"/></svg>
